src/themes/images/2023/details.svg

<svg width="48" height="124" viewBox="0 0 48 124" fill="none" xmlns="http://www.w3.org/2000/svg">
<path d="M12.53 122.394C15.8236 122.394 18.4935 119.721 18.4935 116.423C18.4935 113.126 15.8236 110.453 12.53 110.453C9.23638 110.453 6.56641 113.126 6.56641 116.423C6.56641 119.721 9.23638 122.394 12.53 122.394Z" fill="#FF0F1E" stroke="#17042B" stroke-width="2" stroke-miterlimit="10"/>
<path d="M12.53 105.514C15.8236 105.514 18.4935 102.841 18.4935 99.5438C18.4935 96.2464 15.8236 93.5734 12.53 93.5734C9.23638 93.5734 6.56641 96.2464 6.56641 99.5438C6.56641 102.841 9.23638 105.514 12.53 105.514Z" fill="#2E3192" stroke="#17042B" stroke-width="2" stroke-miterlimit="10"/>
<path d="M12.53 88.6269C15.8236 88.6269 18.4935 85.9539 18.4935 82.6565C18.4935 79.3592 15.8236 76.6861 12.53 76.6861C9.23638 76.6861 6.56641 79.3592 6.56641 82.6565C6.56641 85.9539 9.23638 88.6269 12.53 88.6269Z" fill="#FF0F1E" stroke="#17042B" stroke-width="2" stroke-miterlimit="10"/>
<path d="M12.53 71.7475C15.8236 71.7475 18.4935 69.0745 18.4935 65.7771C18.4935 62.4797 15.8236 59.8067 12.53 59.8067C9.23638 59.8067 6.56641 62.4797 6.56641 65.7771C6.56641 69.0745 9.23638 71.7475 12.53 71.7475Z" fill="#FFCE0B" stroke="#17042B" stroke-width="2" stroke-miterlimit="10"/>
<path d="M33.364 122.394C36.6576 122.394 39.3276 119.721 39.3276 116.423C39.3276 113.126 36.6576 110.453 33.364 110.453C30.0704 110.453 27.4004 113.126 27.4004 116.423C27.4004 119.721 30.0704 122.394 33.364 122.394Z" fill="#FF0F1E" stroke="#17042B" stroke-width="2" stroke-miterlimit="10"/>
<path d="M33.364 105.514C36.6576 105.514 39.3276 102.841 39.3276 99.5438C39.3276 96.2464 36.6576 93.5734 33.364 93.5734C30.0704 93.5734 27.4004 96.2464 27.4004 99.5438C27.4004 102.841 30.0704 105.514 33.364 105.514Z" fill="#2E3192" stroke="#17042B" stroke-width="2" stroke-miterlimit="10"/>
<path d="M33.364 88.627C36.6576 88.627 39.3276 85.9539 39.3276 82.6566C39.3276 79.3592 36.6576 76.6862 33.364 76.6862C30.0704 76.6862 27.4004 79.3592 27.4004 82.6566C27.4004 85.9539 30.0704 88.627 33.364 88.627Z" fill="#FF0F1E" stroke="#17042B" stroke-width="2" stroke-miterlimit="10"/>
<path d="M33.364 71.7475C36.6576 71.7475 39.3276 69.0745 39.3276 65.7771C39.3276 62.4797 36.6576 59.8067 33.364 59.8067C30.0704 59.8067 27.4004 62.4797 27.4004 65.7771C27.4004 69.0745 30.0704 71.7475 33.364 71.7475Z" fill="#FFCE0B" stroke="#17042B" stroke-width="2" stroke-miterlimit="10"/>
<path fill-rule="evenodd" clip-rule="evenodd" d="M23.7801 0C-6.59633 1.29175 -7.93381 44.1401 20.1296 48.3776C43.8816 51.9693 57.5002 22.3536 40.2153 6.20671C35.3768 1.68558 30.2393 0.291432 23.7801 0.00787653V0Z" fill="#161E7F"/>
<path d="M23.9287 45.2745C35.8865 45.2745 45.5801 35.5698 45.5801 23.5983C45.5801 11.6269 35.8865 1.9221 23.9287 1.9221C11.971 1.9221 2.27734 11.6269 2.27734 23.5983C2.27734 35.5698 11.971 45.2745 23.9287 45.2745Z" fill="#FF0F1E"/>
<mask id="mask0_121_60860" style="mask-type:luminance" maskUnits="userSpaceOnUse" x="2" y="1" width="44" height="45">
<path d="M23.9287 45.2745C35.8865 45.2745 45.5801 35.5698 45.5801 23.5983C45.5801 11.6269 35.8865 1.9221 23.9287 1.9221C11.971 1.9221 2.27734 11.6269 2.27734 23.5983C2.27734 35.5698 11.971 45.2745 23.9287 45.2745Z" fill="white"/>
</mask>
<g mask="url(#mask0_121_60860)">
<path d="M37.1621 45.7865L28.3505 26.6544L20.3256 26.2291L5.88086 52.5839L36.0056 47.2279L37.1621 45.7865Z" fill="#FFA72B"/>
<path d="M20.7422 27.9225L28.4681 49.3309L37.0672 44.2348L27.044 22.9524L22.6697 26.1424" fill="#FF0F1E"/>
</g>
<path d="M23.9287 45.2745C35.8865 45.2745 45.5801 35.5698 45.5801 23.5983C45.5801 11.6269 35.8865 1.9221 23.9287 1.9221C11.971 1.9221 2.27734 11.6269 2.27734 23.5983C2.27734 35.5698 11.971 45.2745 23.9287 45.2745Z" stroke="#17042B" stroke-width="3" stroke-miterlimit="10"/>
<path d="M23.9304 30.4035C27.6845 30.4035 30.7278 27.3566 30.7278 23.5982C30.7278 19.8397 27.6845 16.7928 23.9304 16.7928C20.1762 16.7928 17.1328 19.8397 17.1328 23.5982C17.1328 27.3566 20.1762 30.4035 23.9304 30.4035Z" fill="#17042B"/>
</svg>

<?xml version="1.0" encoding="UTF-8"?>
<svg fill="none" viewBox="0 0 48 124" xmlns="http://www.w3.org/2000/svg">
<path d="m12.53 122.39c3.2936 0 5.9635-2.673 5.9635-5.971 0-3.297-2.6699-5.97-5.9635-5.97-3.2936 0-5.9636 2.673-5.9636 5.97 0 3.298 2.67 5.971 5.9636 5.971z" fill="#FF0F1E" stroke="#17042B" stroke-miterlimit="10" stroke-width="2"/>
<path d="m12.53 105.51c3.2936 0 5.9635-2.673 5.9635-5.9702 0-3.2974-2.6699-5.9704-5.9635-5.9704-3.2936 0-5.9636 2.673-5.9636 5.9704 0 3.2972 2.67 5.9702 5.9636 5.9702z" fill="#2E3192" stroke="#17042B" stroke-miterlimit="10" stroke-width="2"/>
<path d="m12.53 88.627c3.2936 0 5.9635-2.673 5.9635-5.9704 0-3.2973-2.6699-5.9704-5.9635-5.9704-3.2936 0-5.9636 2.6731-5.9636 5.9704 0 3.2974 2.67 5.9704 5.9636 5.9704z" fill="#FF0F1E" stroke="#17042B" stroke-miterlimit="10" stroke-width="2"/>
<path d="m12.53 71.748c3.2936 0 5.9635-2.673 5.9635-5.9704s-2.6699-5.9704-5.9635-5.9704c-3.2936 0-5.9636 2.673-5.9636 5.9704s2.67 5.9704 5.9636 5.9704z" fill="#FFCE0B" stroke="#17042B" stroke-miterlimit="10" stroke-width="2"/>
<path d="m33.364 122.39c3.2936 0 5.9636-2.673 5.9636-5.971 0-3.297-2.67-5.97-5.9636-5.97s-5.9636 2.673-5.9636 5.97c0 3.298 2.67 5.971 5.9636 5.971z" fill="#FF0F1E" stroke="#17042B" stroke-miterlimit="10" stroke-width="2"/>
<path d="m33.364 105.51c3.2936 0 5.9636-2.673 5.9636-5.9702 0-3.2974-2.67-5.9704-5.9636-5.9704s-5.9636 2.673-5.9636 5.9704c0 3.2972 2.67 5.9702 5.9636 5.9702z" fill="#2E3192" stroke="#17042B" stroke-miterlimit="10" stroke-width="2"/>
<path d="m33.364 88.627c3.2936 0 5.9636-2.6731 5.9636-5.9704 0-3.2974-2.67-5.9704-5.9636-5.9704s-5.9636 2.673-5.9636 5.9704c0 3.2973 2.67 5.9704 5.9636 5.9704z" fill="#FF0F1E" stroke="#17042B" stroke-miterlimit="10" stroke-width="2"/>
<path d="m33.364 71.748c3.2936 0 5.9636-2.673 5.9636-5.9704s-2.67-5.9704-5.9636-5.9704-5.9636 2.673-5.9636 5.9704 2.67 5.9704 5.9636 5.9704z" fill="#FFCE0B" stroke="#17042B" stroke-miterlimit="10" stroke-width="2"/>
<path d="m23.78 0c-30.376 1.2918-31.714 44.14-3.6505 48.378 23.752 3.5917 37.371-26.024 20.086-42.171-4.8385-4.5211-9.976-5.9153-16.435-6.1988v-0.0078765z" clip-rule="evenodd" fill="#161E7F" fill-rule="evenodd"/>
<path d="m23.929 45.274c11.958 0 21.651-9.7047 21.651-21.676 0-11.971-9.6936-21.676-21.651-21.676-11.958 0-21.651 9.7048-21.651 21.676 0 11.972 9.6937 21.676 21.651 21.676z" fill="#FF0F1E"/>
<mask id="a" x="2" y="1" width="44" height="45" style="mask-type:luminance" maskUnits="userSpaceOnUse">
<path d="m23.929 45.274c11.958 0 21.651-9.7047 21.651-21.676 0-11.971-9.6936-21.676-21.651-21.676-11.958 0-21.651 9.7048-21.651 21.676 0 11.972 9.6937 21.676 21.651 21.676z" fill="#fff"/>
</mask>
<g mask="url(#a)">
<path d="m37.162 45.786-8.8116-19.132-8.0249-0.4253-14.445 26.355 30.125-5.356 1.1565-1.4414z" fill="#FFA72B"/>
<path d="m20.742 27.922 7.7259 21.408 8.5991-5.0961-10.023-21.282-4.3743 3.19" fill="#FF0F1E"/>
</g>
<path d="m23.929 45.274c11.958 0 21.651-9.7047 21.651-21.676 0-11.971-9.6936-21.676-21.651-21.676-11.958 0-21.651 9.7048-21.651 21.676 0 11.972 9.6937 21.676 21.651 21.676z" stroke="#17042B" stroke-miterlimit="10" stroke-width="3"/>
<path d="m23.93 30.404c3.7541 0 6.7974-3.0469 6.7974-6.8053 0-3.7585-3.0433-6.8054-6.7974-6.8054-3.7542 0-6.7976 3.0469-6.7976 6.8054 0 3.7584 3.0434 6.8053 6.7976 6.8053z" fill="#17042B"/>
</svg>
